symbols/web/3mp/materialsymbolsoutlined/3mp_wght100_24px.svg

<svg xmlns="http://www.w3.org/2000/svg" height="24" width="24"><path d="M10.15 11.1h3.1q.275 0 .438-.162.162-.163.162-.438v-4q0-.275-.162-.438-.163-.162-.438-.162h-3.1v.7h3v1.55h-2v.7h2v1.55h-3Zm-3.75 7h.7v-4.5h1.8v3h.7v-3h1.8v4.5h.7v-4.6q0-.275-.162-.438-.163-.162-.438-.162H7q-.275 0-.438.162-.162.163-.162.438Zm7.5 0h.7v-1.5H17q.275 0 .438-.162.162-.163.162-.438v-2.5q0-.275-.162-.438-.163-.162-.438-.162h-3.1Zm.7-2.2v-2.3h2.3v2.3Zm-8.8 3.8q-.65 0-1.075-.425Q4.3 18.85 4.3 18.2V5.8q0-.65.425-1.075Q5.15 4.3 5.8 4.3h12.4q.65 0 1.075.425.425.425.425 1.075v12.4q0 .65-.425 1.075-.425.425-1.075.425Zm0-.7h12.4q.3 0 .55-.25.25-.25.25-.55V5.8q0-.3-.25-.55Q18.5 5 18.2 5H5.8q-.3 0-.55.25Q5 5.5 5 5.8v12.4q0 .3.25.55.25.25.55.25ZM5 5v14V5Z"/></svg>

<svg xmlns="http://www.w3.org/2000/svg" height="24" width="24"><path d="M10.15 11.1H13.25Q13.525 11.1 13.688 10.938Q13.85 10.775 13.85 10.5V6.5Q13.85 6.225 13.688 6.062Q13.525 5.9 13.25 5.9H10.15V6.6H13.15V8.15H11.15V8.85H13.15V10.4H10.15ZM5.8 19.7Q5.15 19.7 4.725 19.275Q4.3 18.85 4.3 18.2V5.8Q4.3 5.15 4.725 4.725Q5.15 4.3 5.8 4.3H18.2Q18.85 4.3 19.275 4.725Q19.7 5.15 19.7 5.8V18.2Q19.7 18.85 19.275 19.275Q18.85 19.7 18.2 19.7ZM5.8 19H18.2Q18.5 19 18.75 18.75Q19 18.5 19 18.2V5.8Q19 5.5 18.75 5.25Q18.5 5 18.2 5H5.8Q5.5 5 5.25 5.25Q5 5.5 5 5.8V18.2Q5 18.5 5.25 18.75Q5.5 19 5.8 19ZM5 5Q5 5 5 5.225Q5 5.45 5 5.8V18.2Q5 18.55 5 18.775Q5 19 5 19Q5 19 5 18.775Q5 18.55 5 18.2V5.8Q5 5.45 5 5.225Q5 5 5 5ZM7 12.9Q6.725 12.9 6.562 13.062Q6.4 13.225 6.4 13.5V18.1H7.1V13.6H8.9V16.6H9.6V13.6H11.4V18.1H12.1V13.5Q12.1 13.225 11.938 13.062Q11.775 12.9 11.5 12.9ZM13.9 12.9V18.1H14.6V16.6H17Q17.275 16.6 17.438 16.438Q17.6 16.275 17.6 16V13.5Q17.6 13.225 17.438 13.062Q17.275 12.9 17 12.9ZM14.6 13.6H16.9V15.9H14.6Z"/></svg>
